X:559
T: MAIEKAEFER FRICO FRICO
N: E1852
O: Europa, Mitteleuropa, Deutschland; Frankreich, Elsass
R: Kinder - Lied, Tier - Lied
M: 3/8
L: 1/16
K: F
cc | c2A2d2 | c2A2d2 | c2A2
c2 | c3BB2 | A4c2 | c3BB2 | A4z2
c4c2 | c3cd2 | c6 | A4
A2 | c2c2c2 | c3cd2 | c6 | A4

